WordPressTheme/assets/images/common/info1-icon.svg

<svg width="65" height="65" viewBox="0 0 65 65" fill="none" xmlns="http://www.w3.org/2000/svg">
<path d="M58.0341 30.1019C58.0276 29.7951 57.9434 29.495 57.7894 29.2296C57.3564 28.4753 56.404 27.9953 54.9606 27.8028C54.1254 27.6913 53.3401 27.5549 52.6265 27.3971C50.4391 26.9102 48.1976 26.7103 45.9586 26.8027C44.0748 26.8735 42.1961 27.0439 40.3304 27.3132C39.9351 27.3732 39.476 27.4464 38.967 27.528C35.1872 28.1314 27.4972 29.3589 22.7208 28.4127C22.0719 27.1876 21.9601 26.093 22.3889 25.1562C23.3199 23.1216 26.4721 22.1683 27.6134 21.8841C28.9644 23.9481 30.6816 25.2183 32.7217 25.6618C36.5164 26.4864 40.0115 24.1371 40.1585 24.0369C40.2707 23.9602 40.3554 23.8495 40.4002 23.7211C40.445 23.5927 40.4475 23.4533 40.4073 23.3234C40.3672 23.1935 40.2865 23.0798 40.1771 22.9991C40.0677 22.9183 39.9353 22.8747 39.7994 22.8746C39.4545 22.8503 39.1219 22.737 38.8339 22.5457C38.1986 22.1597 37.679 21.6097 37.3297 20.9535C36.0294 18.5576 34.1523 17.6644 33.0741 17.3373C35.2685 12.0812 32.4153 8.6457 32.2867 8.49567L32.2692 8.47685C31.581 7.73558 31.968 6.39177 31.9716 6.38047C32.0076 6.26218 32.0085 6.13595 31.974 6.01719C31.9395 5.89843 31.8711 5.79229 31.7773 5.71173C31.6835 5.63116 31.5682 5.57966 31.4456 5.5635C31.323 5.54735 31.1984 5.56724 31.0869 5.62075C28.0563 7.07148 26.2517 9.77417 25.8673 13.4363C25.7306 14.8265 25.7797 16.2287 26.0132 17.6059C24.5513 17.5078 23.0836 17.5393 21.6273 17.7C21.0517 17.7565 10.1239 18.928 5.27381 27.5648C3.13922 31.3661 2.93969 35.9298 4.7396 39.7727C6.20784 42.9079 8.63513 45.3205 11.9573 46.9567C10.9863 47.9847 10.1891 49.1639 9.59701 50.4481C7.54167 54.9009 3.19701 54.2476 3.01442 54.2177C2.87979 54.1949 2.7414 54.216 2.61968 54.2779C2.49796 54.3398 2.39936 54.4391 2.33842 54.5613C2.27748 54.6835 2.25743 54.8221 2.28123 54.9565C2.30504 55.091 2.37143 55.2142 2.47061 55.3081C4.53593 57.262 7.17066 58.413 9.73292 58.232C14.5947 57.8884 18.5741 53.6885 20.0584 51.8811C20.6696 51.1268 21.3483 50.4299 22.0862 49.799C22.1139 49.8018 22.1418 49.8027 22.1696 49.8018C25.2603 49.6048 29.2239 49.8188 29.254 49.8207C29.3587 49.828 29.4611 49.8331 29.5654 49.8395C28.3814 50.6789 27.4028 51.7756 26.7033 53.0472C25.6806 54.8819 23.0604 58.7131 19.0063 58.7404C19.7362 58.189 20.3068 57.4539 20.6599 56.6101C21.013 55.7663 21.136 54.8439 21.0163 53.937C21.0084 53.8528 20.9839 53.7711 20.9441 53.6965C20.9043 53.6219 20.85 53.556 20.7845 53.5026C20.719 53.4492 20.6434 53.4094 20.5624 53.3855C20.4813 53.3616 20.3963 53.3541 20.3122 53.3634C20.2282 53.3727 20.1469 53.3986 20.073 53.4397C19.9991 53.4807 19.9341 53.5361 19.8819 53.6025C19.8296 53.6689 19.7911 53.7451 19.7685 53.8266C19.746 53.908 19.7399 53.9932 19.7506 54.077C19.8708 55.0272 19.6483 55.9892 19.123 56.7901C18.5544 57.6029 17.7218 58.1937 16.7669 58.4622C16.6275 58.4917 16.5021 58.5671 16.4107 58.6763C16.3193 58.7856 16.2671 58.9223 16.2625 59.0647C16.2579 59.207 16.3012 59.3468 16.3855 59.4617C16.4697 59.5766 16.59 59.6599 16.7272 59.6983C17.4675 59.9096 18.2334 60.0185 19.0033 60.0219C23.7064 60.0219 26.6671 55.7275 27.8157 53.6665C28.4842 52.4408 29.4533 51.4052 30.6321 50.6572C31.0784 50.3821 31.5466 50.1442 32.0318 49.9458C32.0394 49.9426 32.0456 49.9379 32.0529 49.9345C32.2521 49.937 32.4514 49.9398 32.6483 49.9398C45.5601 49.9398 53.3657 44.602 56.2604 42.1572C56.949 41.5751 57.8213 41.255 58.723 41.2537H60.2995C60.9605 41.2626 61.6089 41.0731 62.1612 40.7097C63.565 39.7617 63.3702 38.2327 63.0242 37.4237C63.0483 36.4503 62.8936 31.8777 58.0341 30.1019ZM19.0743 51.0732C17.9987 52.3827 14.141 56.6786 9.65292 56.9612C7.91814 57.0704 6.24906 56.5691 4.67165 55.4692C6.49245 55.2537 9.20605 54.3342 10.7586 50.9704C10.7757 50.9313 12.5101 47.0397 15.2252 46.3609C15.3879 46.3188 15.5273 46.2142 15.6132 46.0698C15.699 45.9255 15.7244 45.753 15.6837 45.59C15.6429 45.427 15.5395 45.2867 15.3958 45.1997C15.2521 45.1127 15.0798 45.0859 14.9165 45.1253C14.2277 45.307 13.5799 45.6188 13.0082 46.0439C9.69998 44.5365 7.30468 42.2474 5.89292 39.2326C4.26657 35.761 4.45028 31.6324 6.38421 28.1887C10.9292 20.0945 21.6501 18.9772 21.7578 18.967C21.7606 18.967 21.763 18.9657 21.7659 18.9653C21.7687 18.9649 21.7713 18.9653 21.774 18.9653C21.8011 18.9621 24.4879 18.6442 26.7219 18.9636C26.826 18.9784 26.9321 18.9671 27.0308 18.9309C27.1294 18.8947 27.2176 18.8347 27.2875 18.7561C27.3574 18.6776 27.4067 18.583 27.4311 18.4808C27.4556 18.3785 27.4544 18.2719 27.4276 18.1702C27.0797 16.6503 26.9816 15.0839 27.1372 13.5325C27.4364 10.7605 28.5964 8.69031 30.5903 7.36155C30.5892 8.08431 30.8493 8.78313 31.3226 9.32937C31.5053 9.55148 33.9714 12.6926 31.5974 17.5067C31.5516 17.5994 31.5292 17.7018 31.5319 17.8051C31.5346 17.9084 31.5624 18.0096 31.6129 18.0997C31.6635 18.1899 31.7352 18.2664 31.8219 18.3226C31.9087 18.3788 32.0078 18.4131 32.1107 18.4224C32.1359 18.4247 34.6483 18.6848 36.2112 21.5618C36.6698 22.4194 37.3511 23.1376 38.1834 23.6407C38.1901 23.6445 38.1969 23.6486 38.2037 23.6528C36.9777 24.2128 34.9965 24.8575 32.9843 24.4162C31.1772 24.0209 29.654 22.8162 28.4576 20.8345C28.3905 20.7235 28.2911 20.6356 28.1726 20.5826C28.0542 20.5296 27.9224 20.5141 27.7948 20.538C27.5855 20.5772 22.6476 21.5379 21.2326 24.6239C20.762 25.6522 20.7334 26.7756 21.1445 27.9763C20.4993 27.7535 19.9096 27.3946 19.4154 26.9239C19.043 26.5591 18.7604 26.1128 18.5898 25.6202C18.5641 25.5403 18.5229 25.4662 18.4685 25.4023C18.4141 25.3384 18.3476 25.2859 18.2728 25.2478C18.1981 25.2096 18.1165 25.1867 18.0328 25.1802C17.9491 25.1737 17.865 25.1838 17.7853 25.21C17.7055 25.2362 17.6317 25.2778 17.5681 25.3326C17.5046 25.3874 17.4524 25.4542 17.4148 25.5292C17.3771 25.6042 17.3546 25.6859 17.3487 25.7696C17.3427 25.8533 17.3533 25.9374 17.38 26.017C17.6111 26.6964 17.9973 27.3127 18.5079 27.8171C22.1386 31.5052 33.2166 29.736 39.1682 28.7856C39.6732 28.7048 40.1282 28.6321 40.5214 28.5727C42.342 28.3103 44.1753 28.1443 46.0134 28.0753C48.1416 27.9874 50.2723 28.1772 52.3515 28.64C53.1001 28.8055 53.9212 28.9486 54.7919 29.0647C56.1218 29.242 56.484 29.5679 56.759 30.0942C56.4598 30.1903 56.151 30.2535 55.8381 30.2824C55.3311 30.3318 54.82 30.32 54.3159 30.247C50.9894 29.8294 47.6128 30.3658 44.5794 31.7936C42.4682 32.8224 40.6127 34.3086 39.1477 36.1442C37.7649 37.8429 33.9148 41.7992 28.0448 41.8461C27.8778 41.8495 27.7189 41.9185 27.6022 42.038C27.4855 42.1576 27.4206 42.3182 27.4212 42.4853C27.4219 42.6523 27.4882 42.8124 27.6058 42.931C27.7234 43.0497 27.8829 43.1174 28.0499 43.1195H28.0552C34.4659 43.0685 38.6389 38.7867 40.1352 36.9482C41.4818 35.2587 43.1879 33.8903 45.1294 32.9424C47.9382 31.6193 51.0653 31.1222 54.1459 31.5091C54.7518 31.5956 55.3659 31.6088 55.975 31.5485C56.4561 31.5064 56.9289 31.3962 57.379 31.2213C60.4883 32.2624 61.4046 34.5719 61.6629 36.0816C60.5568 35.3334 59.2601 34.9165 57.9253 34.88H57.9178C50.8473 34.2638 44.9519 39.6597 44.4966 40.088C39.2341 44.3242 30.6613 45.3962 30.5758 45.4067C30.5634 45.4082 30.5506 45.4103 30.5382 45.4124L26.0987 46.2167C25.86 46.2528 23.9351 46.6011 21.3606 48.7434C20.526 49.4453 19.7604 50.2255 19.0743 51.0732ZM55.412 41.2072C53.7049 42.6193 51.8399 43.8287 49.8543 44.8113C50.3751 43.9744 50.805 43.0843 51.1368 42.1561C51.1949 41.9975 51.1876 41.8224 51.1165 41.6692C51.0455 41.516 50.9165 41.3973 50.758 41.3392C50.6794 41.3105 50.596 41.2975 50.5125 41.3009C50.429 41.3044 50.3469 41.3243 50.2711 41.3595C50.1179 41.4305 49.9992 41.5595 49.9411 41.7181C48.6611 45.213 46.9645 46.088 46.922 46.109C46.9164 46.1117 46.9118 46.1156 46.9064 46.1183C45.738 46.5709 44.5468 46.9618 43.3374 47.2895C44.1075 46.3257 44.6894 45.2258 45.0528 44.0469C46.1655 40.6367 47.3681 39.4809 47.5458 39.3241C48.9256 38.3777 50.4152 37.6023 51.982 37.0152C51.5951 37.575 51.2621 38.1702 50.9877 38.7929C50.951 38.8688 50.9302 38.9514 50.9265 39.0356C50.9228 39.1198 50.9364 39.2039 50.9663 39.2827C50.9963 39.3614 51.042 39.4333 51.1007 39.4938C51.1594 39.5543 51.2299 39.6022 51.3077 39.6345C51.4636 39.6817 51.6308 39.6759 51.7831 39.618C51.9354 39.5601 52.0643 39.4534 52.1495 39.3145C53.2183 36.9358 54.3876 36.3854 54.5753 36.3097C55.6503 36.1127 56.7467 36.0598 57.8357 36.1523C57.8588 36.1544 57.8841 36.155 57.9076 36.1548H57.9247C57.5262 36.7978 57.2272 37.4973 57.0378 38.2297C56.7235 39.3306 56.1682 40.3477 55.412 41.2072ZM36.9553 48.4543C37.3495 47.9967 37.6725 47.4823 37.9132 46.9284C37.9163 46.9213 37.9195 46.9137 37.9223 46.9066C37.9287 46.8906 38.5421 45.3604 39.4093 44.397C41.2556 43.6805 43.0065 42.7392 44.6225 41.5944C44.3282 42.2665 44.0679 42.953 43.8425 43.6512C42.7119 47.1172 40.6726 47.8783 40.4597 47.9492C39.3489 48.1602 38.1824 48.3328 36.9553 48.4548V48.4543ZM23.9577 48.4556C25.3519 47.6294 26.2592 47.4811 26.2882 47.4768C26.2925 47.4768 26.2965 47.4743 26.3008 47.4737C26.3052 47.4732 26.3114 47.4737 26.3168 47.4722L30.3789 46.7362C29.9707 47.4434 29.4126 48.0525 28.7437 48.5209C27.8095 48.4814 25.9038 48.4172 23.9577 48.4561V48.4556ZM30.5647 48.6178C31.1413 48.0004 31.5961 47.2795 31.905 46.4932C33.7543 46.1708 35.5784 45.7179 37.3638 45.1379C37.1323 45.5553 36.9249 45.9855 36.7426 46.4266C36.0766 47.9351 35.0056 48.4878 34.7097 48.6163C33.3884 48.6771 32.0076 48.6826 30.5644 48.6184L30.5647 48.6178ZM61.4487 39.6548C61.107 39.8754 60.7071 39.9889 60.3004 39.9807H58.723C58.3716 39.9818 58.0212 40.0197 57.6776 40.0936C57.9222 39.6044 58.1191 39.0927 58.2656 38.5657C58.6233 37.2669 59.1251 36.6212 59.3438 36.3874C60.3006 36.6612 61.1658 37.1879 61.8483 37.9121C61.9609 38.1753 62.2786 39.0946 61.4483 39.6554L61.4487 39.6548Z" fill="#408F95"/>
<path d="M17.9035 23.6419C17.9821 23.6704 18.0656 23.6832 18.1491 23.6794C18.2327 23.6757 18.3147 23.6555 18.3904 23.62C18.4661 23.5845 18.5341 23.5344 18.5904 23.4726C18.6468 23.4108 18.6904 23.3384 18.7187 23.2598C18.7551 23.1594 18.7943 23.0599 18.8364 22.9614C18.8691 22.8845 18.8864 22.8018 18.8872 22.7182C18.888 22.6346 18.8723 22.5517 18.841 22.4741C18.8098 22.3966 18.7635 22.326 18.705 22.2663C18.6464 22.2066 18.5767 22.159 18.4997 22.1263C18.4228 22.0936 18.3402 22.0763 18.2565 22.0755C18.1729 22.0747 18.09 22.0904 18.0125 22.1217C17.9349 22.1529 17.8643 22.1992 17.8046 22.2577C17.7449 22.3163 17.6974 22.386 17.6646 22.463C17.6134 22.5832 17.5654 22.7048 17.5214 22.8266C17.4929 22.9053 17.4803 22.9887 17.4841 23.0722C17.4879 23.1557 17.5081 23.2377 17.5436 23.3134C17.5791 23.3891 17.6291 23.4571 17.6909 23.5134C17.7526 23.5698 17.8249 23.6134 17.9035 23.6419Z" fill="#408F95"/>
<path d="M34.5359 36.229C34.6693 36.2292 34.7994 36.1871 34.9075 36.1089L35.5166 35.6703C35.6512 35.5706 35.7411 35.422 35.7669 35.2565C35.7927 35.091 35.7522 34.9221 35.6543 34.7862C35.5564 34.6503 35.409 34.5585 35.2438 34.5306C35.0787 34.5027 34.9092 34.5409 34.7721 34.6371L34.1632 35.0756C34.0538 35.1544 33.9722 35.2658 33.9302 35.3938C33.8882 35.5218 33.8878 35.6599 33.9293 35.7881C33.9707 35.9163 34.0518 36.0281 34.1608 36.1073C34.2698 36.1866 34.4011 36.2291 34.5359 36.229Z" fill="#408F95"/>
<path d="M23.6954 35.7904C24.0471 35.7904 24.3322 35.5053 24.3322 35.1536C24.3322 34.8019 24.0471 34.5168 23.6954 34.5168C23.3437 34.5168 23.0586 34.8019 23.0586 35.1536C23.0586 35.5053 23.3437 35.7904 23.6954 35.7904Z" fill="#408F95"/>
<path d="M16.8358 40.6725C16.7105 40.6849 16.5916 40.7342 16.4943 40.8141C16.397 40.894 16.3256 41.001 16.2891 41.1215C16.2526 41.2421 16.2526 41.3707 16.2892 41.4912C16.3258 41.6117 16.3973 41.7187 16.4947 41.7985C16.592 41.8784 16.7109 41.9276 16.8362 41.9399C16.9615 41.9522 17.0877 41.9271 17.1988 41.8677C17.3098 41.8084 17.4008 41.7174 17.4601 41.6063C17.5195 41.4953 17.5446 41.3691 17.5323 41.2438C17.5241 41.1605 17.4995 41.0797 17.4601 41.0059C17.4206 40.9322 17.3671 40.8669 17.3024 40.8138C17.2377 40.7608 17.1632 40.721 17.0831 40.6967C17.0031 40.6725 16.919 40.6642 16.8358 40.6725Z" fill="#408F95"/>
<path d="M13.5584 33.3121C13.4331 33.3245 13.3143 33.3738 13.217 33.4537C13.1197 33.5336 13.0482 33.6406 13.0117 33.7612C12.9752 33.8817 12.9753 34.0103 13.0119 34.1308C13.0484 34.2513 13.1199 34.3583 13.2173 34.4381C13.3147 34.518 13.4335 34.5672 13.5589 34.5795C13.6842 34.5918 13.8104 34.5667 13.9214 34.5074C14.0325 34.448 14.1234 34.357 14.1828 34.2459C14.2422 34.1349 14.2673 34.0087 14.2549 33.8834C14.2467 33.8001 14.2222 33.7193 14.1828 33.6455C14.1434 33.5717 14.0898 33.5064 14.0251 33.4534C13.9604 33.4003 13.8859 33.3605 13.8058 33.3363C13.7258 33.312 13.6417 33.3038 13.5584 33.3121Z" fill="#408F95"/>
</svg>

<svg width="65" height="65" fill="none" xmlns="http://www.w3.org/2000/svg"><path d="M58.034 30.102a1.815 1.815 0 00-.245-.872c-.433-.755-1.385-1.235-2.828-1.427a28.136 28.136 0 01-2.334-.406 25.794 25.794 0 00-6.668-.594c-1.884.07-3.763.24-5.629.51-.395.06-.854.133-1.363.215-3.78.603-11.47 1.83-16.246.885-.65-1.225-.76-2.32-.332-3.257.93-2.034 4.083-2.988 5.224-3.272 1.351 2.064 3.069 3.334 5.109 3.778 3.794.824 7.29-1.525 7.436-1.625a.637.637 0 00-.359-1.162 1.999 1.999 0 01-.965-.33 4.138 4.138 0 01-1.504-1.592c-1.3-2.395-3.178-3.289-4.256-3.616 2.195-5.256-.659-8.691-.787-8.841l-.018-.02c-.688-.74-.301-2.084-.297-2.096a.637.637 0 00-.885-.76c-3.03 1.451-4.835 4.154-5.22 7.816a15.733 15.733 0 00.146 4.17 24.83 24.83 0 00-4.386.094c-.575.056-11.503 1.228-16.353 9.865-2.135 3.801-2.334 8.365-.534 12.208 1.468 3.135 3.895 5.547 7.217 7.184a13.03 13.03 0 00-2.36 3.491c-2.055 4.453-6.4 3.8-6.583 3.77a.636.636 0 00-.543 1.09c2.065 1.954 4.7 3.105 7.262 2.924 4.862-.344 8.841-4.544 10.325-6.35a15.953 15.953 0 012.028-2.083c.028.003.056.004.084.003 3.09-.197 7.054.017 7.084.019l.311.019a9.61 9.61 0 00-2.862 3.207c-1.022 1.835-3.643 5.666-7.697 5.693a5.172 5.172 0 002.01-4.803.637.637 0 10-1.265.14c.12.95-.103 1.912-.628 2.713a4.294 4.294 0 01-2.356 1.672.636.636 0 00-.04 1.236c.74.212 1.506.32 2.276.324 4.703 0 7.664-4.294 8.813-6.355a8.232 8.232 0 012.816-3.01 9.571 9.571 0 011.4-.711l.02-.011c.2.002.4.005.596.005 12.912 0 20.718-5.338 23.612-7.783a3.823 3.823 0 012.463-.903H60.3a3.3 3.3 0 001.861-.544c1.404-.948 1.21-2.477.863-3.286.024-.974-.13-5.546-4.99-7.322zm-38.96 20.971c-1.075 1.31-4.933 5.606-9.421 5.888-1.735.11-3.404-.392-4.981-1.492 1.82-.215 4.534-1.135 6.087-4.499.017-.039 1.751-3.93 4.466-4.61a.637.637 0 00-.309-1.235 5.586 5.586 0 00-1.908.919c-3.308-1.508-5.703-3.797-7.115-6.811-1.626-3.472-1.443-7.6.491-11.044 4.545-8.095 15.266-9.212 15.374-9.222l.008-.002h.008c.027-.003 2.714-.32 4.948-.001a.637.637 0 00.706-.794 14.362 14.362 0 01-.29-4.638c.298-2.771 1.458-4.842 3.452-6.17a2.998 2.998 0 00.733 1.967c.182.222 2.648 3.364.274 8.178a.636.636 0 00.514.915c.025.003 2.537.263 4.1 3.14a5.41 5.41 0 001.993 2.09c-1.226.56-3.208 1.206-5.22.764-1.807-.395-3.33-1.6-4.526-3.582a.637.637 0 00-.663-.296c-.21.04-5.147 1-6.562 4.086-.471 1.028-.5 2.152-.088 3.352a4.76 4.76 0 01-1.73-1.052 3.368 3.368 0 01-.825-1.304.637.637 0 10-1.21.397 4.61 4.61 0 001.128 1.8c3.63 3.688 14.709 1.919 20.66.969.505-.081.96-.154 1.353-.213a52.235 52.235 0 015.492-.498 24.516 24.516 0 016.339.565c.748.165 1.57.309 2.44.425 1.33.177 1.692.503 1.967 1.03a4.33 4.33 0 01-.92.187 6.335 6.335 0 01-1.523-.035 17.689 17.689 0 00-9.737 1.547 15.811 15.811 0 00-5.431 4.35c-1.383 1.699-5.233 5.655-11.103 5.702a.637.637 0 00.005 1.274h.005c6.41-.051 10.584-4.333 12.08-6.172a14.55 14.55 0 014.994-4.006 16.371 16.371 0 019.017-1.433c.606.087 1.22.1 1.829.04a5.106 5.106 0 001.404-.328c3.11 1.041 4.026 3.35 4.284 4.86a7.013 7.013 0 00-3.738-1.201h-.007c-7.07-.616-12.966 4.78-13.421 5.208-5.263 4.236-13.836 5.308-13.921 5.319a.813.813 0 00-.038.005l-4.44.805c-.238.036-2.163.384-4.737 2.526a17.13 17.13 0 00-2.287 2.33zm36.338-9.866a28.668 28.668 0 01-5.558 3.604c.521-.837.951-1.727 1.283-2.655a.636.636 0 10-1.196-.438c-1.28 3.495-2.977 4.37-3.019 4.391l-.016.01c-1.168.452-2.36.843-3.569 1.17a9.836 9.836 0 001.716-3.242c1.113-3.41 2.315-4.566 2.493-4.723a20.659 20.659 0 014.436-2.309c-.387.56-.72 1.155-.994 1.778a.62.62 0 00.32.842.737.737 0 00.842-.32c1.068-2.38 2.238-2.93 2.425-3.005a12.308 12.308 0 013.26-.158.746.746 0 00.073.003h.017a7.506 7.506 0 00-.887 2.075 7.713 7.713 0 01-1.626 2.977zm-18.457 7.247a6.005 6.005 0 00.967-1.547c.007-.016.62-1.547 1.487-2.51a24.104 24.104 0 005.214-2.803 21.906 21.906 0 00-.78 2.057c-1.131 3.466-3.17 4.227-3.383 4.298a39.943 39.943 0 01-3.505.506zm-12.997.002c1.394-.827 2.301-.975 2.33-.98l.013-.002c.004 0 .01 0 .016-.002l4.062-.736a5.59 5.59 0 01-1.635 1.785c-.934-.04-2.84-.104-4.786-.065zm6.607.162a6.705 6.705 0 001.34-2.125 39.782 39.782 0 005.459-1.355c-.232.417-.44.848-.621 1.289-.666 1.508-1.737 2.06-2.033 2.19-1.322.06-2.702.066-4.146.001zm30.884-8.963a2.05 2.05 0 01-1.149.326h-1.577a5.047 5.047 0 00-1.045.113c.244-.49.441-1.001.588-1.528.357-1.3.86-1.945 1.078-2.179.957.274 1.822.8 2.504 1.525.113.263.43 1.183-.4 1.743z" fill="#408F95"/><path d="M17.904 23.642a.636.636 0 00.815-.382c.036-.1.075-.2.117-.299a.637.637 0 00-1.171-.498c-.052.12-.1.242-.144.364a.636.636 0 00.383.815zm16.632 12.587a.633.633 0 00.371-.12l.61-.439a.637.637 0 00-.745-1.033l-.609.439a.637.637 0 00.373 1.153zm-10.841-.439a.637.637 0 100-1.273.637.637 0 000 1.273zm-6.859 4.882a.637.637 0 10.247.025.626.626 0 00-.247-.025zm-3.278-7.36a.637.637 0 10.126 1.268.637.637 0 00-.126-1.268z" fill="#408F95"/></svg>
